src/assets/outline/Chart2.svg

<?xml version="1.0" encoding="UTF-8"?>
<svg width="24" height="24" viewBox="0 0 24 24" xmlns="http://www.w3.org/2000/svg">
 <path d="m22 22.75h-20c-0.41 0-0.75-0.34-0.75-0.75s0.34-0.75 0.75-0.75h20c0.41 0 0.75 0.34 0.75 0.75s-0.34 0.75-0.75 0.75z"/>
 <path d="m14.25 22.75h-4.5c-0.41 0-0.75-0.34-0.75-0.75v-18c0-1.72 0.95-2.75 2.55-2.75h0.9c1.6 0 2.55 1.03 2.55 2.75v18c0 0.41-0.34 0.75-0.75 0.75zm-3.75-1.5h3v-17.25c0-1.15-0.54-1.25-1.05-1.25h-0.9c-0.51 0-1.05 0.1-1.05 1.25v17.25z"/>
 <path d="m7 22.75h-4c-0.41 0-0.75-0.34-0.75-0.75v-12c0-1.72 0.88-2.75 2.35-2.75h0.8c1.47 0 2.35 1.03 2.35 2.75v12c0 0.41-0.34 0.75-0.75 0.75zm-3.25-1.5h2.5v-11.25c0-1.25-0.55-1.25-0.85-1.25h-0.8c-0.3 0-0.85 0-0.85 1.25v11.25z"/>
 <path d="m21 22.75h-4c-0.41 0-0.75-0.34-0.75-0.75v-7c0-1.72 0.88-2.75 2.35-2.75h0.8c1.47 0 2.35 1.03 2.35 2.75v7c0 0.41-0.34 0.75-0.75 0.75zm-3.25-1.5h2.5v-6.25c0-1.25-0.55-1.25-0.85-1.25h-0.8c-0.3 0-0.85 0-0.85 1.25v6.25z"/>
</svg>

<svg width="24" height="24" viewBox="0 0 24 24"  xmlns="http://www.w3.org/2000/svg">
<path d="M22 22.75H2C1.59 22.75 1.25 22.41 1.25 22C1.25 21.59 1.59 21.25 2 21.25H22C22.41 21.25 22.75 21.59 22.75 22C22.75 22.41 22.41 22.75 22 22.75Z" />
<path d="M14.25 22.75H9.75C9.34 22.75 9 22.41 9 22V4C9 2.28 9.95 1.25 11.55 1.25H12.45C14.05 1.25 15 2.28 15 4V22C15 22.41 14.66 22.75 14.25 22.75ZM10.5 21.25H13.5V4C13.5 2.85 12.96 2.75 12.45 2.75H11.55C11.04 2.75 10.5 2.85 10.5 4V21.25Z" />
<path d="M7 22.75H3C2.59 22.75 2.25 22.41 2.25 22V10C2.25 8.28 3.13 7.25 4.6 7.25H5.4C6.87 7.25 7.75 8.28 7.75 10V22C7.75 22.41 7.41 22.75 7 22.75ZM3.75 21.25H6.25V10C6.25 8.75 5.7 8.75 5.4 8.75H4.6C4.3 8.75 3.75 8.75 3.75 10V21.25Z" />
<path d="M21 22.75H17C16.59 22.75 16.25 22.41 16.25 22V15C16.25 13.28 17.13 12.25 18.6 12.25H19.4C20.87 12.25 21.75 13.28 21.75 15V22C21.75 22.41 21.41 22.75 21 22.75ZM17.75 21.25H20.25V15C20.25 13.75 19.7 13.75 19.4 13.75H18.6C18.3 13.75 17.75 13.75 17.75 15V21.25Z" />
</svg>
